static/img/kroki/502357a36813322bec3a8c1764a034be.svg

<?xml version="1.0" encoding="us-ascii" standalone="no"?><svg xmlns="http://www.w3.org/2000/svg" xmlns:xlink="http://www.w3.org/1999/xlink" contentStyleType="text/css" height="352px" preserveAspectRatio="none" style="width:368px;height:352px;" version="1.1" viewBox="0 0 368 352" width="368px" zoomAndPan="magnify"><defs/><g><!--class kubernetes_namespace--><g id="elem_kubernetes_namespace"><rect codeLine="22" fill="#3D176E" height="39.7891" id="kubernetes_namespace" rx="2.5" ry="2.5" style="stroke:#000D19;stroke-width:0.5;" width="239" x="64.5" y="7"/><ellipse cx="79.5" cy="26.8945" fill="#ADD1B2" rx="11" ry="11" style="stroke:#181818;stroke-width:1.0;"/><path d="M82.4688,32.5352 Q81.8906,32.832 81.25,32.9727 Q80.6094,33.1289 79.9063,33.1289 Q77.4063,33.1289 76.0781,31.4883 Q74.7656,29.832 74.7656,26.707 Q74.7656,23.582 76.0781,21.9258 Q77.4063,20.2695 79.9063,20.2695 Q80.6094,20.2695 81.25,20.4258 Q81.9063,20.582 82.4688,20.8789 L82.4688,23.5977 Q81.8438,23.0195 81.25,22.7539 Q80.6563,22.4727 80.0313,22.4727 Q78.6875,22.4727 78,23.5508 Q77.3125,24.6133 77.3125,26.707 Q77.3125,28.8008 78,29.8789 Q78.6875,30.9414 80.0313,30.9414 Q80.6563,30.9414 81.25,30.6758 Q81.8438,30.3945 82.4688,29.8164 L82.4688,32.5352 Z " fill="#000000"/><text fill="#D9B8FF" font-family="Helvetica" font-size="17" lengthAdjust="spacing" textLength="197" x="98.5" y="32.7798">kubernetes_namespace</text></g><!--class kubernetes_persistent_volume--><g id="elem_kubernetes_persistent_volume"><rect codeLine="24" fill="#3D176E" height="39.7891" id="kubernetes_persistent_volume" rx="2.5" ry="2.5" style="stroke:#000D19;stroke-width:0.5;" width="300" x="34" y="306.37"/><ellipse cx="49" cy="326.2645" fill="#ADD1B2" rx="11" ry="11" style="stroke:#181818;stroke-width:1.0;"/><path d="M51.9688,331.9052 Q51.3906,332.202 50.75,332.3427 Q50.1094,332.4989 49.4063,332.4989 Q46.9063,332.4989 45.5781,330.8583 Q44.2656,329.202 44.2656,326.077 Q44.2656,322.952 45.5781,321.2958 Q46.9063,319.6395 49.4063,319.6395 Q50.1094,319.6395 50.75,319.7958 Q51.4063,319.952 51.9688,320.2489 L51.9688,322.9677 Q51.3438,322.3895 50.75,322.1239 Q50.1563,321.8427 49.5313,321.8427 Q48.1875,321.8427 47.5,322.9208 Q46.8125,323.9833 46.8125,326.077 Q46.8125,328.1708 47.5,329.2489 Q48.1875,330.3114 49.5313,330.3114 Q50.1563,330.3114 50.75,330.0458 Q51.3438,329.7645 51.9688,329.1864 L51.9688,331.9052 Z " fill="#000000"/><text fill="#D9B8FF" font-family="Helvetica" font-size="17" lengthAdjust="spacing" textLength="258" x="68" y="332.1498">kubernetes_persistent_volume</text></g><!--class kubernetes_persistent_volume_claim--><g id="elem_kubernetes_persistent_volume_claim"><rect codeLine="26" fill="#3D176E" height="39.7891" id="kubernetes_persistent_volume_claim" rx="2.5" ry="2.5" style="stroke:#000D19;stroke-width:0.5;" width="354" x="7" y="206.58"/><ellipse cx="22" cy="226.4745" fill="#ADD1B2" rx="11" ry="11" style="stroke:#181818;stroke-width:1.0;"/><path d="M24.9688,232.1152 Q24.3906,232.412 23.75,232.5527 Q23.1094,232.7089 22.4063,232.7089 Q19.9063,232.7089 18.5781,231.0683 Q17.2656,229.412 17.2656,226.287 Q17.2656,223.162 18.5781,221.5058 Q19.9063,219.8495 22.4063,219.8495 Q23.1094,219.8495 23.75,220.0058 Q24.4063,220.162 24.9688,220.4589 L24.9688,223.1777 Q24.3438,222.5995 23.75,222.3339 Q23.1563,222.0527 22.5313,222.0527 Q21.1875,222.0527 20.5,223.1308 Q19.8125,224.1933 19.8125,226.287 Q19.8125,228.3808 20.5,229.4589 Q21.1875,230.5214 22.5313,230.5214 Q23.1563,230.5214 23.75,230.2558 Q24.3438,229.9745 24.9688,229.3964 L24.9688,232.1152 Z " fill="#000000"/><text fill="#D9B8FF" font-family="Helvetica" font-size="17" lengthAdjust="spacing" textLength="312" x="41" y="232.3598">kubernetes_persistent_volume_claim</text></g><!--class kubernetes_pod--><g id="elem_kubernetes_pod"><rect codeLine="28" fill="#3D176E" height="39.7891" id="kubernetes_pod" rx="2.5" ry="2.5" style="stroke:#000D19;stroke-width:0.5;" width="175" x="167.5" y="106.79"/><ellipse cx="182.5" cy="126.6845" fill="#ADD1B2" rx="11" ry="11" style="stroke:#181818;stroke-width:1.0;"/><path d="M185.4688,132.3252 Q184.8906,132.622 184.25,132.7627 Q183.6094,132.9189 182.9063,132.9189 Q180.4063,132.9189 179.0781,131.2783 Q177.7656,129.622 177.7656,126.497 Q177.7656,123.372 179.0781,121.7158 Q180.4063,120.0595 182.9063,120.0595 Q183.6094,120.0595 184.25,120.2158 Q184.9063,120.372 185.4688,120.6689 L185.4688,123.3877 Q184.8438,122.8095 184.25,122.5439 Q183.6563,122.2627 183.0313,122.2627 Q181.6875,122.2627 181,123.3408 Q180.3125,124.4033 180.3125,126.497 Q180.3125,128.5908 181,129.6689 Q181.6875,130.7314 183.0313,130.7314 Q183.6563,130.7314 184.25,130.4658 Q184.8438,130.1845 185.4688,129.6064 L185.4688,132.3252 Z " fill="#000000"/><text fill="#D9B8FF" font-family="Helvetica" font-size="17" lengthAdjust="spacing" textLength="133" x="201.5" y="132.5698">kubernetes_pod</text></g><!--link kubernetes_namespace to kubernetes_persistent_volume_claim--><g id="link_kubernetes_namespace_kubernetes_persistent_volume_claim"><path codeLine="30" d="M173,47.27 C164.84,62.8 154.4,85.47 150,106.79 C146.43,124.11 146.43,129.26 150,146.58 C153.95,165.74 162.78,185.98 170.45,201.16 " fill="none" id="kubernetes_namespace-to-kubernetes_persistent_volume_claim" style="stroke:#1A83AF;stroke-width:2.0;"/><polygon fill="#1A83AF" points="173,205.11,172.4524,195.2764,170.7184,200.6609,165.3339,198.9269,173,205.11" style="stroke:#1A83AF;stroke-width:2.0;"/></g><!--link kubernetes_namespace to kubernetes_pod--><g id="link_kubernetes_namespace_kubernetes_pod"><path codeLine="31" d="M198.03,47.22 C209.4,62.89 225.5,85.05 237.68,101.83 " fill="none" id="kubernetes_namespace-to-kubernetes_pod" style="stroke:#1A83AF;stroke-width:2.0;"/><polygon fill="#1A83AF" points="241,105.41,238.9374,95.7796,238.0574,101.3676,232.4694,100.4876,241,105.41" style="stroke:#1A83AF;stroke-width:2.0;"/></g><!--link kubernetes_persistent_volume_claim to kubernetes_persistent_volume--><g id="link_kubernetes_persistent_volume_claim_kubernetes_persistent_volume"><path codeLine="32" d="M184,246.8 C184,262.07 184,283.5 184,300.11 " fill="none" id="kubernetes_persistent_volume_claim-to-kubernetes_persistent_volume" style="stroke:#1A83AF;stroke-width:2.0;"/><polygon fill="#1A83AF" points="184,304.99,188,295.99,184,299.99,180,295.99,184,304.99" style="stroke:#1A83AF;stroke-width:2.0;"/></g><!--link kubernetes_pod to kubernetes_persistent_volume_claim--><g id="link_kubernetes_pod_kubernetes_persistent_volume_claim"><path codeLine="33" d="M240.97,147.01 C229.6,162.68 213.5,184.84 201.32,201.62 " fill="none" id="kubernetes_pod-to-kubernetes_persistent_volume_claim" style="stroke:#1A83AF;stroke-width:2.0;"/><polygon fill="#1A83AF" points="198,205.2,206.5306,200.2776,200.9426,201.1576,200.0626,195.5696,198,205.2" style="stroke:#1A83AF;stroke-width:2.0;"/></g><!--SRC=[bP9DQy9048Rl-HKBdeMaqaOlXLIGzYAbzbQAhDbPNPBT3RCJnPR-zwxQbctYHxpE-p3pp30h9O21hcZBDEW5e8jSeKp5aMkM8ThDs9OMMKzABWTfCvnOGnU1ATV07g5S0wcSDudNbSeB0ywnco1wu7cnH5iRSMXFo8tp4HWAg779dSk8K2rgWa16Z1P3APjaisbl89Bq3bgOHG7uWyHnB99H4xauwkpUVyHCVG1BmgDDBK5BipLYJvsrt161P6lHt_oaupCNGfabkmrgBmSdD83_whCL5tQpeoKlNJZ64I1OsbOmRcq5ew6GwL7uwHISxox7Yje_gW42DpVUt_z53kmp-ch7bNzevViQcgzjMUkksDmZIf-0hTW7HotwRxqa6mwooNl_liE4AvjO4NMmxkmGDRQwKluR]--></g></svg>

<svg xmlns="http://www.w3.org/2000/svg" width="368" height="352" preserveAspectRatio="none" style="width:368px;height:352px"><rect width="239" height="39.789" x="64.5" y="7" fill="#3D176E" rx="2.5" ry="2.5" style="stroke:#000d19;stroke-width:.5"/><circle cx="79.5" cy="26.895" r="11" fill="#ADD1B2" style="stroke:#181818;stroke-width:1"/><path d="M82.469 32.535q-.578.297-1.219.438-.64.156-1.344.156-2.5 0-3.828-1.64-1.312-1.657-1.312-4.782t1.312-4.781q1.328-1.656 3.828-1.656.703 0 1.344.156.656.156 1.219.453v2.719q-.625-.578-1.219-.844-.594-.281-1.219-.281-1.344 0-2.031 1.078-.688 1.062-.688 3.156 0 2.094.688 3.172.688 1.062 2.031 1.062.625 0 1.219-.265.594-.281 1.219-.86v2.72Z"/><text x="98.5" y="32.78" fill="#D9B8FF" font-family="Helvetica" font-size="17" textLength="197">kubernetes_namespace</text><rect width="300" height="39.789" x="34" y="306.37" fill="#3D176E" rx="2.5" ry="2.5" style="stroke:#000d19;stroke-width:.5"/><circle cx="49" cy="326.264" r="11" fill="#ADD1B2" style="stroke:#181818;stroke-width:1"/><path d="M51.969 331.905q-.578.297-1.219.438-.64.156-1.344.156-2.5 0-3.828-1.64-1.312-1.657-1.312-4.782t1.312-4.781q1.328-1.656 3.828-1.656.703 0 1.344.156.656.156 1.219.453v2.719q-.625-.579-1.219-.844-.594-.281-1.219-.281-1.343 0-2.031 1.078-.688 1.062-.688 3.156 0 2.094.688 3.172.688 1.062 2.031 1.062.625 0 1.219-.265.594-.281 1.219-.86v2.72Z"/><text x="68" y="332.15" fill="#D9B8FF" font-family="Helvetica" font-size="17" textLength="258">kubernetes_persistent_volume</text><rect width="354" height="39.789" x="7" y="206.58" fill="#3D176E" rx="2.5" ry="2.5" style="stroke:#000d19;stroke-width:.5"/><circle cx="22" cy="226.475" r="11" fill="#ADD1B2" style="stroke:#181818;stroke-width:1"/><path d="M24.969 232.115q-.578.297-1.219.438-.64.156-1.344.156-2.5 0-3.828-1.64-1.312-1.657-1.312-4.782t1.312-4.781q1.328-1.656 3.828-1.656.703 0 1.344.156.656.156 1.219.453v2.719q-.625-.578-1.219-.844-.594-.281-1.219-.281-1.343 0-2.031 1.078-.688 1.062-.688 3.156 0 2.094.688 3.172.688 1.062 2.031 1.062.625 0 1.219-.265.594-.281 1.219-.86v2.72Z"/><text x="41" y="232.36" fill="#D9B8FF" font-family="Helvetica" font-size="17" textLength="312">kubernetes_persistent_volume_claim</text><rect width="175" height="39.789" x="167.5" y="106.79" fill="#3D176E" rx="2.5" ry="2.5" style="stroke:#000d19;stroke-width:.5"/><circle cx="182.5" cy="126.684" r="11" fill="#ADD1B2" style="stroke:#181818;stroke-width:1"/><path d="M185.469 132.325q-.578.297-1.219.438-.64.156-1.344.156-2.5 0-3.828-1.64-1.312-1.657-1.312-4.782t1.312-4.781q1.328-1.656 3.828-1.656.703 0 1.344.156.656.156 1.219.453v2.719q-.625-.579-1.219-.844-.594-.281-1.219-.281-1.344 0-2.031 1.078-.688 1.062-.688 3.156 0 2.094.688 3.172.688 1.062 2.031 1.062.625 0 1.219-.265.594-.281 1.219-.86v2.72Z"/><text x="201.5" y="132.57" fill="#D9B8FF" font-family="Helvetica" font-size="17" textLength="133">kubernetes_pod</text><path fill="none" d="M173 47.27c-8.16 15.53-18.6 38.2-23 59.52-3.57 17.32-3.57 22.47 0 39.79 3.95 19.16 12.78 39.4 20.45 54.58" style="stroke:#1a83af;stroke-width:2"/><path fill="#1A83AF" d="m173 205.11-.548-9.834-1.734 5.385-5.384-1.734L173 205.11z" style="stroke:#1a83af;stroke-width:2"/><path fill="none" d="M198.03 47.22c11.37 15.67 27.47 37.83 39.65 54.61" style="stroke:#1a83af;stroke-width:2"/><path fill="#1A83AF" d="m241 105.41-2.063-9.63-.88 5.588-5.588-.88L241 105.41z" style="stroke:#1a83af;stroke-width:2"/><path fill="none" d="M184 246.8v53.31" style="stroke:#1a83af;stroke-width:2"/><path fill="#1A83AF" d="m184 304.99 4-9-4 4-4-4 4 9z" style="stroke:#1a83af;stroke-width:2"/><path fill="none" d="M240.97 147.01c-11.37 15.67-27.47 37.83-39.65 54.61" style="stroke:#1a83af;stroke-width:2"/><path fill="#1A83AF" d="m198 205.2 8.53-4.922-5.587.88-.88-5.588L198 205.2z" style="stroke:#1a83af;stroke-width:2"/></svg>
